X:0517
T:The Sailor Lassie.
M:9/8
L:1/8
Q:3/8=120
I: :: ::
Z:Jack Campin * www.campin.me.uk * 2009
K:D
A|(F/G/A).F d>ed     Tc2A|(B/c/d).B AFD E2 \
G| F/G/AF   d>ed     Tc2A|(B/c/d).B AFD D2::
f| d2d     (f/g/a).f  afd|(f/g/a).f bge e2 \
f| d2d     (f/g/a)f   afd|(f/g/a)f  afd d2
f| d2d     (f/g/a).f  afd|(f/g/a).f bge e2 \
f| dAd      fed       cBA|(B/c/d).B AFD D2:|
<end>
<start>
